!!!!SEGMENT: pl-kk--i-545--015_rychling-wincenty-waclaw--zdrowas-badz-maria.krn
!!!cenid: 18xx:4492
!!!COM: Rychling, Wincenty Wacław
!!!COM-rismID: pe50046026
!!!CDT: 1841/01/09-1896/01/11
!!!CNT: Polish
!!!OTL: Zdrowaś bądź Maria
!!!PDT:
!!!AGN: Sacred
!!!YEC: Copyright 2022 Narodowy Instytut Fryderyka Chopina (https://polishscores.org)
!!!YEM: License CC-BY-4.0 (https://creativecommons.org/licenses/by/4.0)
!!!SMS-siglum: PL-Kk
!!!SMS-shelfmark: I.545
!!!SMS-variant:
!!!SMS-altvar:
!!!SMS-shelfwork: 015 W
!!!NIFC-rismSourceID: 1001210831
!!!NIFC-rismChildID: 1001210996
!!!NIFC-islandoraID: pl-kk:17058
!!!URL-pdf-islandora: https://repozytorium.nifc.pl/islandora/object/pl-kk%3A17058/datastream/PDF/view
!!!URL-scan: https://polish.musicsources.pl/pl/lokalizacje/galeria/rekopisy/7172/12 @EN{Scan on Polish Music Sources Website} @PL{Skany w portalu Dziedzictwo Muzyki Polskiej w otwartym dostępie}
!!!IIIF:
!!!ONB-nifc: UWAGA: 10v, dwa systemy. Czterogłos rozpisany bez tekstu słownego
!!!OMD:
!!!AIN: 2 vox
!!!key: G
**kern	**kern
*part2	*part1
*staff2	*staff1
*I"[Voce]	*I"[Voce]
*Ivox	*Ivox
*ICvox	*ICvox
*clefF4	*clefG2
*k[f#]	*k[f#]
*G:	*G:
*M4/4	*M4/4
*met(c)	*met(c)
=1	=1
*^	*^
4G/	4G\	4g/	4g\
4G/	4G\	4g/	4g\
4G/	4E\	4b/	4g\
4E/ 4G	4E\	4cc#X/	4a\
=2	=2	=2	=2
2F#/	2C\	2dd/	2a\
2G/	2GG\	2dd/	2b\
=3	=3	=3	=3
4G/	4C\	4ee/	4cc\
4A/	4AA\	4ff#/	4cc\
4G/	4BB\	4gg/	4dd\
4G/	4GG\	4dd/	4b\
=4	=4	=4	=4
2G/	4G\	4b/	4b\
.	4E\	4cc#X/	4a\
2F#/	2D\	2dd/	2a\
=5	=5	=5	=5
4E/	4AA\	4ccn/	4a\
4E/	4C\	4a/	4a\
4E/	4BB\	4b/	4g#X\
4E/	4AA\	4cc/	4a\
=6	=6	=6	=6
2D#X/	2BB\	4b/	2f#\
.	.	4a/	.
2E/	2E\	2g/	2g\
=7	=7	=7	=7
4E/	4E\	4f#/	2ryy
4E/	4E\	4g/	.
4E/	4C#X\	4a/	4g\
4D/	4D\	4b/	4g\
!!LO:LB:g=original
=8	=8	=8	=8
2C#X/	2AA/	2a/	2e\
2D/	2ryy	2d/	2d\
=9!|:	=9!|:	=9!|:	=9!|:
4G/	4G\	4g/	4g\
4D/	4D\	4a/	4f#\
4D#X/	4BB\	4b/	4f#\
4E/	4E\	4g/	4g\
=10	=10	=10	=10
2F#/	2D\	2dd/	2a\
!LO:N:vis=[2G/	!	!	!
[4G/	2E\	2cc#X/	2a\
4G/]	.	.	.
=11	=11	=11	=11
2.F#/	2D\	2.dd/	2a\
.	2ryy	.	2ryy
4r	.	4r	.
=12	=12	=12	=12
4E/	4ryy	4g/	4g\
4D/	4D\	4a/	4f#\
4D/	4GG\	4b/	4g\
4E/	4C\	4cc/	4a\
=13	=13	=13	=13
4C/	2D\	4b/	4gn\
4C/	.	4a/	4f#\
2GG/ 2BB	2ryy	2g/	2g\
*v	*v	*	*
*	*v	*v
=:|!	=:|!
*-	*-
!!!system-decoration: {(s1,s2)}
!!!ENC: Filip Voros
!!!END: 2023-10-28
!!!EED: Marta Chmielewska
!!!EEV: 2024-04-23
